X: 32498
T: Plants In The Bathroom, The
R: slip jig
M: 9/8
K: Eminor
|:E2B BAG B2d|E2B BAG A3|E2B BAG B2d|E2c c2B c3:|
|:A2B cBA dcB|A2B c2g f3|A2B cBA dcB|=F2c c2B c3:|
|:d3 B2d cde|d2g g2f e3|d3 B2D EFG|c2B A2G A3|
d3 B2d cde|d2g b2a g2f|gag fgf edB|cdc BAG A3:|

